Newaita/actions/32/media-repeat-none.svg

<svg height="32" viewBox="0 0 32 32" width="32" xmlns="http://www.w3.org/2000/svg"><g fill="#424242"><path d="m8.601562 29.355469-4.632812-6.613281h3.308594v-19.183594c0-.367188.292968-.664063.660156-.664063h1.324219c.367187 0 .660156.296875.660156.664063v19.183594h3.308594zm0 0" fill-opacity=".392157"/><path d="m23.152344 2.894531-4.628906 6.617188h3.308593v19.183593c0 .367188.292969.660157.660157.660157h1.324218c.363282 0 .660156-.292969.660156-.660157v-19.183593h3.308594zm0 0" fill-opacity=".392157"/><path d="m12.601562 11.253906c-.167968 0-.335937.066406-.46875.195313l-.933593.933593c-.257813.261719-.257813.679688 0 .9375l2.804687 2.804688-2.804687 2.808594c-.257813.257812-.257813.675781 0 .933594l.933593.9375c.261719.257812.679688.257812.9375 0l2.804688-2.808594 2.808594 2.808594c.257812.257812.675781.257812.933594 0l.9375-.9375c.257812-.257813.257812-.675782 0-.933594l-2.808594-2.808594 2.808594-2.804688c.257812-.257812.257812-.675781 0-.9375l-.9375-.933593c-.257813-.257813-.675782-.257813-.933594 0l-2.808594 2.804687-2.804688-2.804687c-.128906-.128907-.300781-.195313-.46875-.195313zm0 0"/></g></svg>

<svg xmlns="http://www.w3.org/2000/svg" xmlns:xlink="http://www.w3.org/1999/xlink" width="32px" height="32px" viewBox="0 0 32 32" version="1.1">
<g id="surface1">
<path style=" stroke:none;fill-rule:nonzero;fill:rgb(25.882354%,25.882354%,25.882354%);fill-opacity:0.392157;" d="M 8.601562 29.355469 L 3.96875 22.742188 L 7.277344 22.742188 L 7.277344 3.558594 C 7.277344 3.191406 7.570312 2.894531 7.9375 2.894531 L 9.261719 2.894531 C 9.628906 2.894531 9.921875 3.191406 9.921875 3.558594 L 9.921875 22.742188 L 13.230469 22.742188 Z M 8.601562 29.355469 "/>
<path style=" stroke:none;fill-rule:nonzero;fill:rgb(25.882354%,25.882354%,25.882354%);fill-opacity:0.392157;" d="M 23.152344 2.894531 L 18.523438 9.511719 L 21.832031 9.511719 L 21.832031 28.695312 C 21.832031 29.0625 22.125 29.355469 22.492188 29.355469 L 23.816406 29.355469 C 24.179688 29.355469 24.476562 29.0625 24.476562 28.695312 L 24.476562 9.511719 L 27.785156 9.511719 Z M 23.152344 2.894531 "/>
     <defs>
  <style id="current-color-scheme" type="text/css">
   .ColorScheme-Text { color:#424242; } .ColorScheme-Highlight { color:#eeeeee; }
  </style>
 </defs>
<path style="fill:currentColor" class="ColorScheme-Text" d="M 12.601562 11.253906 C 12.433594 11.253906 12.265625 11.320312 12.132812 11.449219 L 11.199219 12.382812 C 10.941406 12.644531 10.941406 13.0625 11.199219 13.320312 L 14.003906 16.125 L 11.199219 18.933594 C 10.941406 19.191406 10.941406 19.609375 11.199219 19.867188 L 12.132812 20.804688 C 12.394531 21.0625 12.8125 21.0625 13.070312 20.804688 L 15.875 17.996094 L 18.683594 20.804688 C 18.941406 21.0625 19.359375 21.0625 19.617188 20.804688 L 20.554688 19.867188 C 20.8125 19.609375 20.8125 19.191406 20.554688 18.933594 L 17.746094 16.125 L 20.554688 13.320312 C 20.8125 13.0625 20.8125 12.644531 20.554688 12.382812 L 19.617188 11.449219 C 19.359375 11.191406 18.941406 11.191406 18.683594 11.449219 L 15.875 14.253906 L 13.070312 11.449219 C 12.941406 11.320312 12.769531 11.253906 12.601562 11.253906 Z M 12.601562 11.253906 "/>
</g>
</svg>
